packages/tokens/icons/heart/size64Px.svg

<svg viewBox="0 0 64 64" fill="none" xmlns="http://www.w3.org/2000/svg" width="1em" height="1em"><path d="M34.0138 12.8571L34.0139 12.857C40.1322 6.74971 49.7065 7.10485 55.4161 13.6588C61.1429 20.2323 60.8044 30.5437 54.6672 36.6674L54.6669 36.6677L54.6084 36.7262L54.6082 36.7263L32.3532 58.9409C32.158 59.1358 31.8419 59.1358 31.6467 58.9409L9.39247 36.7263L9.39232 36.7262L9.33375 36.6677L9.3335 36.6674C3.19551 30.5437 2.85698 20.2323 8.58377 13.6588C14.2934 7.10485 23.8678 6.74971 29.986 12.857L29.9861 12.8571L31.6468 14.514L32 14.8664L32.3531 14.514L34.0138 12.8571Z" stroke="currentColor"/></svg>

<svg xmlns="http://www.w3.org/2000/svg" fill="none" viewBox="0 0 64 64" width="1em" height="1em"><path stroke="currentColor" d="M34.014 12.857c6.118-6.107 15.692-5.752 21.402.802 5.727 6.573 5.388 16.885-.749 23.008l-.059.06L32.353 58.94a.5.5 0 0 1-.706 0L9.392 36.726l-.058-.058c-6.138-6.124-6.477-16.436-.75-23.01 5.71-6.553 15.284-6.908 21.402-.801l1.66 1.657.354.352.353-.352 1.66-1.657Z"/></svg>
